build/system/UserRoleToOutline.svg

<svg xmlns="http://www.w3.org/2000/svg" fill="none" viewBox="0 0 24 24" focusable="false"><path d="M0 0H24V24H0z"/><path fill="#74767B" fill-rule="evenodd" d="M12 3C9.33497 3 7.26365 5.32002 7.56456 7.96802L7.8266 10.274C8.06781 12.3966 9.86377 14 12 14C14.1363 14 15.9322 12.3966 16.1734 10.274L16.4355 7.96803C16.7364 5.32002 14.6651 3 12 3ZM14.8817 10.1272L15.1438 7.82124C15.3571 5.94439 13.889 4.3 12 4.3C10.1111 4.3 8.64297 5.94439 8.85625 7.82124L9.11829 10.1272C9.28484 11.5928 10.5249 12.7 12 12.7C13.4751 12.7 14.7152 11.5928 14.8817 10.1272ZM17.726 21.239C17.906 21.239 18.076 21.169 18.206 21.029C18.446 20.759 18.426 20.349 18.166 20.109L16.6084 18.6235L19.9868 18.6235C20.3458 18.6235 20.6368 18.3325 20.6368 17.9735C20.6368 17.6145 20.3458 17.3235 19.9868 17.3235L16.6155 17.3235L18.166 15.949C18.436 15.709 18.446 15.299 18.206 15.029C17.966 14.769 17.556 14.749 17.286 14.989L14.576 17.4535C14.266 17.7335 14.266 18.2135 14.576 18.4935L17.286 21.069C17.416 21.189 17.566 21.239 17.726 21.239ZM4.28926 19.6984C4.89931 16.9532 7.33419 15 10.1464 15L12.6571 15C13.0161 15 13.3071 15.291 13.3071 15.65C13.3071 16.009 13.0161 16.3 12.6571 16.3L10.1464 16.3C8.04051 16.3 6.20474 17.6982 5.62966 19.7L12.6571 19.7C13.0161 19.7 13.3071 19.991 13.3071 20.35C13.3071 20.709 13.0161 21 12.6571 21L4.87265 21C4.42482 21 4.09217 20.5853 4.18932 20.1481L4.28926 19.6984Z"/></svg>

<svg xmlns="http://www.w3.org/2000/svg" fill="none" viewBox="0 0 24 24" focusable="false"><path fill="#74767B" fill-rule="evenodd" d="M7.56 7.96C7.26 5.32 9.33 3 12 3a4.46 4.46 0 0 1 4.43 4.96l-.26 2.31A4.206 4.206 0 0 1 12 14c-2.14 0-3.94-1.61-4.18-3.73zm7.58-.14-.26 2.3A2.91 2.91 0 0 1 12 12.7a2.91 2.91 0 0 1-2.89-2.58l-.26-2.3A3.176 3.176 0 0 1 12 4.29c1.88 0 3.35 1.65 3.14 3.53m2.58 13.41c.18 0 .35-.07.48-.21.24-.27.22-.68-.04-.92l-1.56-1.48h3.38c.36 0 .65-.29.65-.65s-.29-.65-.65-.65h-3.37l1.55-1.38a.65.65 0 0 0 .04-.92.66.66 0 0 0-.92-.04l-2.71 2.47c-.31.28-.31.76 0 1.04l2.71 2.57c.13.12.28.17.44.17M4.28 19.69A6 6 0 0 1 10.14 15h2.51c.36 0 .65.29.65.65 0 .35-.29.64-.65.64h-2.51c-2.1 0-3.94 1.4-4.52 3.41h7.03c.36 0 .65.29.65.65 0 .35-.29.65-.65.65H4.87c-.45 0-.78-.42-.69-.86z"/></svg>
